release/img/icons/Refresh.svg

<svg width="17" height="23" viewBox="0 0 17 23" fill="none" xmlns="http://www.w3.org/2000/svg">
<path d="M8.28223 3.03369V0.0336914L4.28223 4.03369L8.28223 8.03369V5.03369C11.5922 5.03369 14.2822 7.72369 14.2822 11.0337C14.2822 12.0437 14.0322 13.0037 13.5822 13.8337L15.0422 15.2937C15.8222 14.0637 16.2822 12.6037 16.2822 11.0337C16.2822 6.61369 12.7022 3.03369 8.28223 3.03369ZM8.28223 17.0337C4.97223 17.0337 2.28223 14.3437 2.28223 11.0337C2.28223 10.0237 2.53223 9.06369 2.98223 8.23369L1.52223 6.77369C0.742226 8.00369 0.282227 9.46369 0.282227 11.0337C0.282227 15.4537 3.86223 19.0337 8.28223 19.0337V22.0337L12.2822 18.0337L8.28223 14.0337V17.0337Z" fill="white"/>
</svg>

<svg width="17" height="23" fill="none" xmlns="http://www.w3.org/2000/svg"><path d="M8.282 3.034v-3l-4 4 4 4v-3c3.31 0 6 2.69 6 6 0 1.01-.25 1.97-.7 2.8l1.46 1.46a7.93 7.93 0 001.24-4.26c0-4.42-3.58-8-8-8zm0 14c-3.31 0-6-2.69-6-6 0-1.01.25-1.97.7-2.8l-1.46-1.46a7.93 7.93 0 00-1.24 4.26c0 4.42 3.58 8 8 8v3l4-4-4-4v3z" fill="#fff"/></svg>
